X:1
T:Dono Filli partendo
T:Enrico Radesca di Foggia
T:Source : Secondo Libro delle canzonette, madrigali et arie alla Romana a due voci--- Milano---Herede di S.Tini et F.Lomazzo---1606 Editor : André Vierendeels (15/11/16).
T:Notes : Original clefs : C1, F4 Editorial accidentals above the staff "Per cantar e suonar con il chitarone o spinetta" Text by Caesare Rinaldi (Madrigali) 
T:Dono Filli partendo
T:©
T:©
T:©
C:Enrico Radesca di Foggi
Z:©
%%score 1 2
L:1/8
Q:1/4=120
M:4/4
K:F
V:1 treble nm="Soprano" snm="S"
V:2 bass nm="MusicXML Part"
V:1
 z2 B2 d4- | d4 c2 Bc | d4 A4 | z AAA c4- | c2 G2 G4 | F4 B2 c2 | d4 d2 ^c2 | d4 D2 E2 | %8
w: Do- no|_ Fil- li par-|ten- do,|a me le per-|* l'e l'o-|ro, ca- ro|don' in a-|mor, ca- ro|
 ^F4 F2 G2 | A4 d4- | d2 cB A4 |[M:2/4] G4 :: B2 A2 |[M:4/4] A4 F2 E2 | ^F4 B2 c2 | d2 cB c4 | %16
w: don' in a-|mor, ca-|* ro te- so-|ro,|lo mi-|rai, lo ba-|ciai, e ba-|cian- d'e mi- ran-|
 B4 F2 G2 | A2 AB c4- | c2 d2 B4- | B2 B2 A4 | G8 || G8 | ^F4 F4 | z2 G4 A2 | ^F4 F4 | A4 E2 E2 | %26
w: do, in un|tras- si'al mio cor|_ di- let-|* ti'e gua-|i.|Poi|dol- ce|so- spi-|ran- do,|dis- si trà|
 ^F4 A4 | B8 | A4 D2 D2 | E2 EE ^F4 | G4 A2 A2 | =B2 BB ^c4 | d4 d2 G2 | A8 | G4 D2 D2 | %35
w: me: piu|fi-|ne, ha, le|per- le la boc-|ca, ha, le|per- le la boc-|ca'e l'o- ro'il|cri-|ne, ha, le|
 E2 EE ^F4 | G4 z2 D2 | E3 F G2 A2 | A8 | G8 :| %40
w: per- le la boc-|ca, e|l'o- * * roi'il|cri-|ne.|
V:2
"^BC""^Bass" z2 G,2 G,4 | _E,4 E,2 E,2 | D,4 D,D,D,E, | F,6 A,,2 |"^B" C,8 | F,,4 G,,2 A,,2 | %6
w: Do- no|Fil- li per-|ten- do, a me le|per- l'e|l'o-|ro, ca- ro|
 B,,4 A,,2 A,,2 | D,4 B,,2 C,2 | D,4 D,2 E,2 |"^(-natural)" ^F,4 G,2 F,E, |"^B" D,8 | %11
w: don' in a-|mor, ca- ro|don' in a-|mor, ca- rr te-|so-|
[M:2/4] G,,4 :: G,2 A,2 |[M:4/4] D,4 G,2 A,2 | D,4 G,2 A,2 | B,2 A,G, F,4 |"^B" B,,4 D,2 E,2 | %17
w: ro,|lo mi-|rai, la ba-|ciai, e ba-|cian- d'e mi- ran-|do, in un|
 F,2 F,G, A,4 | ^F,4 G,2 _E,2 | D,8 | G,,8 || G,,8 |"^B" D,4 D,4 | z2 _E,4 C,2 | D,4 D,4 | %25
w: tas- si'al mio cor|di- let- t'e|guar-|di,|Poi|dol- ce|so- spi-|ran- do,|
 A,,4 A,,2 A,,2 | D,4 D,4 | G,,8 |"^B" D,8 | C,2 C,2 D,2 D,D, | E,4 ^F,4 | G,2 G,2 A,2 A,A, | %32
w: dis- si trà|me: piu|fi-|ne,|ha le per- le la|boc- ca,|ha le per- le la|
 ^F,2 F,2 G,2 E,2 | D,8 |"^B" G,,4 B,,2 B,,2 | C,2 C,C, D,4 | G,,4 z2 B,,2 | C,3 D, _E,2 C,2 | %38
w: boc- ca'e l'o- 'il|cri-|ne, ha le|per- le la boc-|ca, e|l'o- * * ro'il|
 D,8 | G,,8 :| %40
w: cri-|ne.|

